src/resources/icons/delete.svg

<svg width="20" height="20" viewBox="0 0 20 20" fill="none" xmlns="http://www.w3.org/2000/svg">
<g clip-path="url(#clip0_7_280257)">
<g clip-path="url(#clip1_7_280257)">
<path d="M3.33331 5.83325H16.6666" stroke="#121958" stroke-width="1.25" stroke-linecap="round" stroke-linejoin="round"/>
<path d="M8.33331 9.16675V14.1667" stroke="#121958" stroke-width="1.25" stroke-linecap="round" stroke-linejoin="round"/>
<path d="M11.6667 9.16675V14.1667" stroke="#121958" stroke-width="1.25" stroke-linecap="round" stroke-linejoin="round"/>
<path d="M4.16669 5.83325L5.00002 15.8333C5.00002 16.2753 5.17561 16.6992 5.48818 17.0118C5.80074 17.3243 6.22466 17.4999 6.66669 17.4999H13.3334C13.7754 17.4999 14.1993 17.3243 14.5119 17.0118C14.8244 16.6992 15 16.2753 15 15.8333L15.8334 5.83325" stroke="#121958" stroke-width="1.25" stroke-linecap="round" stroke-linejoin="round"/>
<path d="M7.5 5.83333V3.33333C7.5 3.11232 7.5878 2.90036 7.74408 2.74408C7.90036 2.5878 8.11232 2.5 8.33333 2.5H11.6667C11.8877 2.5 12.0996 2.5878 12.2559 2.74408C12.4122 2.90036 12.5 3.11232 12.5 3.33333V5.83333" stroke="#121958" stroke-width="1.25" stroke-linecap="round" stroke-linejoin="round"/>
</g>
</g>
<defs>
<clipPath id="clip0_7_280257">
<rect width="20" height="20" fill="white"/>
</clipPath>
<clipPath id="clip1_7_280257">
<rect width="20" height="20" fill="white"/>
</clipPath>
</defs>
</svg>

<svg xmlns="http://www.w3.org/2000/svg" width="20" height="20" fill="none"><g clip-path="url(#a)"><g clip-path="url(#b)"><path d="M3.333 5.833h13.334M8.333 9.167v5m3.334-5v5m-7.5-8.334.833 10A1.667 1.667 0 0 0 6.667 17.5h6.666A1.667 1.667 0 0 0 15 15.833l.833-10m-8.333 0v-2.5a.833.833 0 0 1 .833-.833h3.334a.833.833 0 0 1 .833.833v2.5"/></g></g><defs><clipPath id="a"><path d="M0 0h20v20H0z"/></clipPath><clipPath id="b"><path d="M0 0h20v20H0z"/></clipPath></defs></svg>
